X: 20619
T: John Pottinger's Compliments To The Late Ronnie Cooper
R: reel
M: 4/4
K: Fmajor
|:CB,|A,CDE FEFG|Ac=Bc dcAF|G,B,DG Bd^cd|=Bg^fg ecBc|
Aa^ga fc=Bc|ABcB AFDB,|G,B,DG Bdgf|ecde f2:|
|:zb|afef cfaf|cdcB AFEF|bg^fg ec=Bc|BG^FG ECB,C|
A,F F/F/F AFEF|Ac c/c/c fcAc|Bd^cd =Bg_bg|ecde f2:|

